public/images/icons/certification/not-certified.svg

<svg xmlns="http://www.w3.org/2000/svg" width="38" height="37" viewBox="0 0 38 37"><g fill="none"><path fill="#E5E5E5" d="M18.6404341,0.00490719776 C15.7619191,0.106070603 13.2136901,1.76354806 11.92343,4.2507789 L11.854,4.388 L11.6485036,4.34572147 C8.84741559,3.81461596 5.91259055,4.83667013 4.05521385,7.13033933 L3.86672788,7.37249308 C2.15731357,9.65829901 1.84215202,12.650152 2.936813,15.1995921 L3.043,15.436 L2.92333356,15.5356892 C0.712559762,17.4103075 -0.332266999,20.3986583 0.342269831,23.3203983 L0.409786072,23.5911215 C1.15409601,26.3672767 3.33452772,28.4746648 6.0411867,29.1768038 L6.188,29.212 L6.19065208,29.3620659 C6.27475816,32.241464 7.93666969,34.9091102 10.6148152,36.215329 L10.8843977,36.3406409 C13.5038559,37.4992214 16.5016041,37.1303515 18.7431171,35.4786062 L18.919,35.343 L19.0960889,35.4788095 C21.4159709,37.1873443 24.5438963,37.5230808 27.2251848,36.215329 L27.4732628,36.0889197 C30.0056103,34.7422058 31.5676143,32.1517127 31.6486187,29.3624057 L31.65,29.212 L31.7980583,29.1773354 C34.5923875,28.4524399 36.8259742,26.2300929 37.4977302,23.3203983 L37.5559493,23.0463181 C38.1058415,20.2128867 37.0582809,17.3516561 34.9164086,15.5359617 L34.795,15.437 L34.9030597,15.1999263 C36.0369219,12.5591304 35.6584085,9.44407019 33.7847862,7.13033933 L33.5954873,6.90520495 C31.7317426,4.77008785 28.8987607,3.83217222 26.1913923,4.34602182 L25.985,4.389 L25.9167778,4.25104745 C24.5846797,1.68333305 21.9124028,0 18.92,0 L18.6404341,0.00490719776 Z M18.92,2 C21.4322111,2 23.6423327,3.59004624 24.4657841,5.92022148 L24.796973,6.85740843 L25.7361411,6.53188013 C28.0554661,5.72797089 30.6595156,6.44898306 32.2304942,8.38898012 C33.8215164,10.3537289 33.9678422,13.0931953 32.6508517,15.2033172 L32.1245439,16.0465833 L32.9646441,16.5779301 C35.0575351,17.9016425 36.1152865,20.4175968 35.54899,22.8704962 C34.9850287,25.3132811 32.9457361,27.1070785 30.4958806,27.390662 L29.5084409,27.5049633 L29.6168307,28.4930693 C29.8851267,30.938918 28.5967272,33.3211793 26.3484425,34.4177409 C24.0807658,35.5237608 21.3846174,35.0544218 19.6242249,33.3044256 L18.9189412,32.6033071 L18.2139302,33.3046997 C16.455224,35.0543792 13.7592292,35.5237583 11.4915575,34.4177409 C9.24315606,33.3211223 7.95443857,30.9384287 8.22228554,28.4923074 L8.33046483,27.5043564 L7.34319936,27.3900906 C4.89379341,27.106597 2.85491463,25.3130357 2.29100996,22.8704962 C1.72471851,20.4176185 2.78244342,17.9015105 4.87530271,16.5773306 L5.71520583,16.0459128 L5.18893483,15.2027752 C3.87213811,13.093138 4.01851722,10.3536874 5.60950577,8.38898012 C7.180399,6.44908854 9.78428778,5.72800995 12.1044203,6.53153665 L13.043485,6.85676097 L13.3745552,5.91974131 C14.1977044,3.59000287 16.4078324,2 18.92,2 Z"/><path fill="#8C8C8C" d="M13.4131995,13.1008613 C13.9260353,13.1008613 14.3487066,13.4869015 14.4064717,13.9842401 L14.4131995,14.1008613 L14.413,18.992 L25.2681047,17.671463 C25.7771881,17.6095382 26.2433809,17.9417163 26.3607769,18.4284408 L26.3815373,18.5433963 C26.4434621,19.0524797 26.111284,19.5186726 25.6245595,19.6360685 L25.509604,19.6568289 L13.5339491,21.1135443 C12.9778886,21.1811833 12.4835102,20.7806409 12.4200645,20.2389737 L12.4131995,20.1208613 L12.4131995,14.1008613 C12.4131995,13.5485765 12.8609147,13.1008613 13.4131995,13.1008613 Z" transform="rotate(-45 19.401 17.11)"/></g></svg>

<svg viewBox="0 0 38 37"><g fill="none"><path fill="#E5E5E5" d="M18.64.005a7.882 7.882 0 00-6.717 4.246l-.069.137-.205-.042A7.882 7.882 0 004.055 7.13l-.188.242a7.883 7.883 0 00-.93 7.828l.106.236-.12.1a7.882 7.882 0 00-2.58 7.784l.067.271a7.882 7.882 0 005.631 5.586l.147.035.003.15a7.882 7.882 0 004.424 6.853l.27.126a7.88 7.88 0 007.858-.862l.176-.136.177.136a7.882 7.882 0 008.13.736l.247-.126a7.88 7.88 0 004.176-6.727l.001-.15.148-.035a7.882 7.882 0 005.7-5.857l.058-.274a7.882 7.882 0 00-2.64-7.51l-.121-.099.108-.237a7.883 7.883 0 00-1.118-8.07l-.19-.225a7.881 7.881 0 00-7.404-2.559l-.206.043-.068-.138A7.882 7.882 0 0018.92 0l-.28.005zM18.92 2a5.882 5.882 0 015.546 3.92l.331.937.94-.325a5.88 5.88 0 016.914 8.671l-.526.844.84.53a5.881 5.881 0 01-2.47 10.814l-.987.114.109.988a5.88 5.88 0 01-9.993 4.811l-.705-.7-.705.7a5.882 5.882 0 01-9.992-4.812l.108-.988-.987-.114a5.881 5.881 0 01-2.468-10.813l.84-.531-.526-.843a5.882 5.882 0 016.915-8.671l.94.325.33-.937A5.882 5.882 0 0118.92 2z"/><path fill="#8C8C8C" d="M12.332 18.51a1 1 0 011.327-.079l.087.078 3.459 3.459 6.742-8.61a1 1 0 011.308-.237l.096.067a1 1 0 01.237 1.307l-.067.096-7.438 9.499a1 1 0 01-1.406.169l-.088-.079-4.257-4.257a1 1 0 010-1.414z"/></g></svg>
